X: 1073
T: the Lassie with the yellow Coattie.   a Strathspey.
%R: strathspey
N: This is version 1, for ABC software that doesn't understand voice overlays.
B: Niel Gow & Sons "Complete Repository" v.1 p.7 #3
Z: 2021 John Chambers <jc:trillian.mit.edu>
M: C
L: 1/16
Q: "SLOW"
K: D	% ending on Bm
% - - - - - - - - - -
% Voice 1 formatted for proofreading.
V: 1 staves=2
|:\
D4D2F2 A3Bd2A2 | TB3Ad3A TB3AB2d2 |\
{d}D4D3F A3Bd2A2 | (B3c/d/) {B}A3F TE3D B,4 :|\
Td3ef2d2 e2B2d2A2 | FA3A3B T=c3d{c}B2A2 |
Td3ef2d2 e2B2d2A2 | (B3c/d/) {B}A3F E3DB,4 ||\
Td3ef2d2 e2B2d2A2 | FA3A3B T=c3dB2A2 |\
d3e {de}f3d e3cd3A | (cB)(dc) (BA)GF (GF)(ED) B,4 |]
% - - - - - - - - - -
% Voice 2 preserves the book's staff layout.
V: 2 clef=bass middle=d
|:\
D4d4 d4[d4f4] | [d4g4][d4f4] [d8g8] |\
f4d4 [d4f4][d4f4] | [d4g4]d4 a2f2[d4g4] :|\
!p!d4d'4 a2g2f4 | d4d4 "_sf"[d4f4][d4g4] |
f4d4 a4b2f2 | d4g2f2 a4[d4g4] ||\
d4d'4 a2g2f4 | d4d4 [d4f4]"_sf"[d4g4] |\
f4d4 a4b2f2 | [d4g4] [f2a2][d2a2] b4[d4a4] |]
